src/img/evaporation.svg

<svg width="15" height="15" viewBox="0 0 15 15" fill="none" xmlns="http://www.w3.org/2000/svg">
<path d="M3.00012 8.61582C2.99399 9.55624 3.22629 10.4804 3.67166 11.2875C4.11252 12.1038 4.73956 12.7835 5.49256 13.2615C6.24326 13.7476 7.10193 14.0029 7.97638 14C8.85642 14.0015 9.72063 13.7464 10.4785 13.2615C11.2389 12.7868 11.8729 12.1067 12.3188 11.2875C12.7708 10.4556 13 9.57248 13 8.61582C13 7.99282 12.8364 7.25432 12.5017 6.39215C12.178 5.55087 11.7729 4.74917 11.2932 4.00049C10.8142 3.33206 10.3153 2.68071 9.79728 2.0475C9.2226 1.3405 8.2153 0.249666 7.98607 0L6.75922 1.34166C6.12936 2.00556 5.55495 2.72861 5.04271 3.50233C4.48874 4.33396 4.01013 5.22163 3.61354 6.15299C3.19168 7.09799 3.00012 7.91932 3.00012 8.61582Z" fill="white"/>
<path d="M8.26517 4.73483C8.11872 4.58839 7.88128 4.58839 7.73483 4.73483L5.34835 7.12132C5.2019 7.26777 5.2019 7.5052 5.34835 7.65165C5.4948 7.7981 5.73223 7.7981 5.87868 7.65165L8 5.53033L10.1213 7.65165C10.2678 7.7981 10.5052 7.7981 10.6517 7.65165C10.7981 7.5052 10.7981 7.26777 10.6517 7.12132L8.26517 4.73483ZM8.375 14L8.375 5H7.625L7.625 14H8.375Z" fill="#303D31"/>
</svg>

<svg xmlns="http://www.w3.org/2000/svg" width="15" height="15" fill="none"><path fill="#fff" d="M3 8.616c-.006.94.226 1.864.672 2.672a5.3 5.3 0 0 0 1.82 1.973A4.53 4.53 0 0 0 7.976 14a4.6 4.6 0 0 0 2.503-.739 5.3 5.3 0 0 0 1.84-1.973A5.5 5.5 0 0 0 13 8.615q.002-.933-.498-2.224A13.3 13.3 0 0 0 11.293 4a39 39 0 0 0-1.496-1.953C9.223 1.34 8.215.25 7.987 0L6.758 1.342a16.3 16.3 0 0 0-3.146 4.811C3.193 7.098 3 7.919 3 8.616"/><path fill="#303D31" d="M8.265 4.735a.375.375 0 0 0-.53 0L5.348 7.12a.375.375 0 1 0 .53.53L8 5.532l2.121 2.12a.375.375 0 0 0 .53-.53zM8.375 14V5h-.75v9z"/></svg>
